configs/network-logos/degen-dark.svg

<svg width="106" height="24" viewBox="0 0 106 24" fill="none" xmlns="http://www.w3.org/2000/svg">
<g clip-path="url(#clip0_11604_49901)">
<path fill-rule="evenodd" clip-rule="evenodd" d="M14.1703 0C19.353 0 20.7581 0.121123 22.8654 0.363371H22.8646C23.836 0.475305 24.6146 1.1987 24.5423 2.17855L23.7661 12.7609C23.5232 12.8313 23.2583 12.9203 22.9612 13.0201C21.4042 13.543 18.9635 14.3627 14.1703 14.3627C9.3771 14.3627 6.93636 13.543 5.37936 13.0201C5.08201 12.9202 4.81686 12.8311 4.57375 12.7607L3.79754 2.17855C3.72608 1.1987 4.50219 0.457762 5.47522 0.363371C7.55676 0.161219 9.72391 0 14.1703 0ZM4.94569 17.8315C4.68549 17.6001 4.50306 17.4033 4.39071 17.2672C4.30096 17.1578 4.24777 17.0241 4.24029 16.8821L4.12592 14.797C3.37192 14.3829 2.59424 13.9158 2.59424 13.9158C1.36942 13.2518 0.00250017 14.2057 7.30961e-06 15.6049C-0.00414742 17.8695 1.76329 20.1951 4.14731 21.6611C6.83545 23.3142 10.8481 24 14.1711 24C17.4941 24 21.5067 23.3142 24.1949 21.6611C26.5789 20.1951 28.3463 17.8687 28.3422 15.6049C28.3397 14.2057 26.9727 13.2518 25.7479 13.9158C25.7479 13.9158 24.9689 14.3841 24.2143 14.7985L24.1009 16.8637C24.0918 17.0175 24.0353 17.1636 23.9372 17.2814C23.2866 18.0616 20.5079 20.6795 14.1694 20.6795C9.04589 20.6795 6.22602 18.9467 5.00186 17.8809C4.9827 17.8642 4.96406 17.8478 4.94569 17.8315Z" fill="#8B5CF6"/>
<path fill-rule="evenodd" clip-rule="evenodd" d="M34.8679 19.5055V5.04173C34.8679 4.78545 34.9697 4.53967 35.1509 4.35846C35.3322 4.17724 35.5779 4.07544 35.8342 4.07544H42.3092C42.4046 4.07544 42.4996 4.08714 42.5922 4.11027C42.7973 4.16156 42.9846 4.26763 43.1342 4.41714L45.7399 7.02284C45.8866 7.16959 46.002 7.3446 46.0791 7.53729C46.1515 7.71829 46.1887 7.91145 46.1887 8.1064V16.4615C46.1887 16.6543 46.1438 16.8445 46.0576 17.0169C45.9945 17.1431 45.9104 17.2575 45.8088 17.3555L43.103 19.9647C42.9002 20.1602 42.6456 20.2935 42.3694 20.3487C42.2743 20.3677 42.1776 20.3773 42.0806 20.3773H35.7398C35.4749 20.3773 35.2244 20.2569 35.059 20.0501C34.9353 19.8955 34.8679 19.7034 34.8679 19.5055ZM38.2641 16.5146V7.93826C38.2641 7.7845 38.3252 7.63703 38.434 7.5283C38.5427 7.41957 38.6902 7.35849 38.8439 7.35849H40.5534C41.1172 7.35849 41.6579 7.58246 42.0566 7.98113C42.4553 8.3798 42.6792 8.92052 42.6792 9.48432V14.9685C42.6792 15.5323 42.4553 16.073 42.0566 16.4717C41.6579 16.8704 41.1172 17.0943 40.5534 17.0943H38.8439C38.6902 17.0943 38.5427 17.0333 38.434 16.9245C38.3252 16.8158 38.2641 16.6683 38.2641 16.5146ZM52.9811 14.3911V16.4151C52.9811 16.6289 53.0818 16.8302 53.2528 16.9585C53.3704 17.0467 53.5134 17.0943 53.6604 17.0943H60.4528C60.7029 17.0943 60.9057 17.2971 60.9057 17.5472V19.6043C60.9057 19.8093 60.8242 20.006 60.6792 20.1509C60.5343 20.2959 60.3377 20.3774 60.1326 20.3774H50.7628C50.4469 20.3774 50.1472 20.237 49.9449 19.9943C49.7854 19.8029 49.6981 19.5617 49.6981 19.3126V5.1402C49.6981 4.89112 49.7854 4.64993 49.9449 4.45858C50.1472 4.21583 50.4469 4.07547 50.7628 4.07547H60.0526C60.3089 4.07547 60.5546 4.17728 60.7358 4.35849C60.9171 4.5397 61.0189 4.78548 61.0189 5.04176V6.48662C61.0189 6.75148 60.8985 7.00198 60.6916 7.16744C60.5371 7.29111 60.345 7.35849 60.147 7.35849H53.5609C53.4071 7.35849 53.2597 7.41957 53.1509 7.5283C53.0422 7.63703 52.9811 7.7845 52.9811 7.93826V9.93554C52.9811 10.1601 53.108 10.3653 53.3088 10.4657C53.3911 10.5069 53.4819 10.5283 53.5739 10.5283H58.3357C58.6005 10.5283 58.851 10.6487 59.0165 10.8555C59.1402 11.0101 59.2075 11.2022 59.2075 11.4002V13.0383C59.2075 13.2433 59.1261 13.4399 58.9811 13.5849C58.8362 13.7299 58.6395 13.8113 58.4345 13.8113H53.5609C53.4071 13.8113 53.2597 13.8724 53.1509 13.9811C53.0422 14.0899 52.9811 14.2373 52.9811 14.3911ZM82.6415 16.4151V14.3911C82.6415 14.2373 82.7026 14.0899 82.8113 13.9811C82.92 13.8724 83.0675 13.8113 83.2213 13.8113H88.0949C88.2999 13.8113 88.4965 13.7299 88.6415 13.5849C88.7865 13.4399 88.8679 13.2433 88.8679 13.0383V11.4002C88.8679 11.2022 88.8005 11.0101 88.6769 10.8555C88.5114 10.6487 88.2609 10.5283 87.996 10.5283H83.2343C83.1422 10.5283 83.0515 10.5069 82.9692 10.4657C82.7684 10.3653 82.6415 10.1601 82.6415 9.93554V7.93826C82.6415 7.7845 82.7026 7.63703 82.8113 7.5283C82.92 7.41957 83.0675 7.35849 83.2213 7.35849H89.8074C90.0053 7.35849 90.1974 7.29111 90.352 7.16744C90.5588 7.00198 90.6792 6.75148 90.6792 6.48662V5.04176C90.6792 4.78548 90.5774 4.5397 90.3962 4.35849C90.215 4.17728 89.9692 4.07547 89.713 4.07547H80.4232C80.1072 4.07547 79.8076 4.21583 79.6053 4.45858C79.4458 4.64993 79.3585 4.89112 79.3585 5.1402V19.3126C79.3585 19.5617 79.4458 19.8029 79.6053 19.9943C79.8076 20.237 80.1072 20.3774 80.4232 20.3774H89.793C89.998 20.3774 90.1946 20.2959 90.3396 20.1509C90.4846 20.006 90.566 19.8093 90.566 19.6043V17.5472C90.566 17.2971 90.3633 17.0943 90.1132 17.0943H83.3208C83.1738 17.0943 83.0308 17.0467 82.9132 16.9585C82.7422 16.8302 82.6415 16.6289 82.6415 16.4151ZM70.2493 10.5283H74.7843C75.0334 10.5283 75.2746 10.6156 75.4659 10.7751C75.7087 10.9774 75.8491 11.277 75.8491 11.593V15.2557C75.8491 16.6475 75.2826 17.9795 74.28 18.9449C73.3256 19.8639 72.0523 20.3774 70.7274 20.3774H69.5368C68.2119 20.3774 66.9385 19.8639 65.9842 18.9449C64.9816 17.9795 64.4151 16.6475 64.4151 15.2557V9.19717C64.4151 7.8053 64.9816 6.47337 65.9842 5.50791C66.9385 4.5889 68.2119 4.07547 69.5368 4.07547H70.8228C72.089 4.07547 73.3086 4.55338 74.2377 5.41365L75.5992 6.67429C75.7585 6.8218 75.8491 7.02908 75.8491 7.2462C75.8491 7.46225 75.7594 7.6686 75.6014 7.81601L74.431 8.90842C74.251 9.07639 74.014 9.16981 73.7678 9.16981C73.5061 9.16981 73.2554 9.06422 73.0725 8.87694L72.4741 8.26415C71.9085 7.68501 71.1332 7.35849 70.3237 7.35849H69.2773C68.9185 7.35849 68.5745 7.50102 68.3208 7.75472C68.0671 8.00842 67.9245 8.35251 67.9245 8.71129V15.4351C67.9245 15.8451 68.0874 16.2384 68.3774 16.5283C68.6673 16.8182 69.0605 16.9811 69.4706 16.9811H70.9868C71.3456 16.9811 71.6897 16.8386 71.9434 16.5849C72.1971 16.3312 72.3396 15.9871 72.3396 15.6283V14.3039C72.3396 14.2049 72.3059 14.1088 72.2441 14.0315C72.1614 13.9281 72.0361 13.8679 71.9037 13.8679H70.2015C69.9746 13.8679 69.7557 13.7839 69.5871 13.6321C69.3935 13.458 69.283 13.2098 69.283 12.9494V11.4946C69.283 11.2383 69.3848 10.9925 69.566 10.8113C69.7472 10.6301 69.993 10.5283 70.2493 10.5283ZM97.5849 12.5568V19.5055C97.5849 19.7035 97.5175 19.8955 97.3938 20.0501C97.2284 20.257 96.9779 20.3774 96.713 20.3774H94.8679C94.721 20.3774 94.5779 20.3297 94.4604 20.2415C94.2893 20.1132 94.1887 19.9119 94.1887 19.6981V5.04176C94.1887 4.78548 94.2905 4.5397 94.4717 4.35849C94.6529 4.17728 94.8987 4.07547 95.155 4.07547H95.624C96.3505 4.07547 97.0253 4.45115 97.4079 5.06865L101.731 12.0437C101.757 12.0869 101.805 12.1132 101.855 12.1132C101.936 12.1132 102.001 12.0488 102.002 11.9686L102.109 4.94299C102.112 4.74757 102.179 4.55868 102.302 4.40606C102.469 4.19711 102.722 4.07547 102.989 4.07547H104.543C104.799 4.07547 105.045 4.17728 105.226 4.35849C105.408 4.5397 105.509 4.78548 105.509 5.04176V19.4111C105.509 19.6673 105.408 19.9131 105.226 20.0943C105.045 20.2756 104.799 20.3774 104.543 20.3774H104.032C103.263 20.3774 102.549 19.9753 102.15 19.317L97.9879 12.4443C97.9486 12.3793 97.8781 12.3396 97.8021 12.3396C97.6822 12.3396 97.5849 12.4369 97.5849 12.5568Z" fill="#8B5CF6"/>
</g>
<defs>
<clipPath id="clip0_11604_49901">
<rect width="105.509" height="24" fill="white"/>
</clipPath>
</defs>
</svg>

<svg xmlns="http://www.w3.org/2000/svg" fill="none" viewBox="0 0 106 24">
  <g fill="#8B5CF6" fill-rule="evenodd" clip-path="url(#degen-dark_svg__a)" clip-rule="evenodd">
    <path d="M14.17 0c5.183 0 6.588.121 8.695.363.971.112 1.75.836 1.677 1.816l-.776 10.582c-.243.07-.508.16-.805.26-1.557.522-3.997 1.342-8.79 1.342-4.794 0-7.235-.82-8.792-1.343-.297-.1-.562-.189-.805-.26L3.798 2.18C3.726 1.2 4.502.459 5.475.364 7.557.161 9.724 0 14.17 0ZM4.946 17.831a5.276 5.276 0 0 1-.555-.564.66.66 0 0 1-.15-.385l-.115-2.085a53.116 53.116 0 0 1-1.532-.881c-1.225-.664-2.591.29-2.594 1.689-.004 2.264 1.763 4.59 4.147 6.056C6.835 23.314 10.848 24 14.171 24c3.323 0 7.336-.686 10.024-2.339 2.384-1.466 4.151-3.792 4.147-6.056-.002-1.4-1.37-2.353-2.594-1.69 0 0-.78.47-1.534.884l-.113 2.065a.717.717 0 0 1-.164.417c-.65.78-3.43 3.399-9.768 3.399-5.123 0-7.943-1.733-9.167-2.8a8.425 8.425 0 0 1-.056-.049Zm29.922 1.675V5.042a.966.966 0 0 1 .966-.967h6.475a1.168 1.168 0 0 1 .825.342l2.606 2.606a1.533 1.533 0 0 1 .449 1.083v8.356a1.242 1.242 0 0 1-.38.893l-2.706 2.61a1.473 1.473 0 0 1-1.022.412H35.74a.872.872 0 0 1-.872-.871Zm3.396-2.991V7.938a.58.58 0 0 1 .58-.58h1.71a2.126 2.126 0 0 1 2.125 2.126v5.485a2.126 2.126 0 0 1-2.126 2.125h-1.71a.58.58 0 0 1-.579-.58Zm14.717-2.124v2.024a.68.68 0 0 0 .68.68h6.792c.25 0 .453.202.453.452v2.057a.773.773 0 0 1-.773.773h-9.37a1.065 1.065 0 0 1-1.065-1.064V5.14a1.065 1.065 0 0 1 1.065-1.065h9.29a.966.966 0 0 1 .966.967v1.445a.872.872 0 0 1-.872.871h-6.586a.58.58 0 0 0-.58.58v1.998a.593.593 0 0 0 .593.592h4.762a.872.872 0 0 1 .872.872v1.638a.773.773 0 0 1-.773.773H53.56a.58.58 0 0 0-.58.58Zm29.66 2.024v-2.024a.58.58 0 0 1 .58-.58h4.874a.773.773 0 0 0 .773-.773V11.4a.872.872 0 0 0-.872-.872h-4.762a.592.592 0 0 1-.593-.592V7.938a.58.58 0 0 1 .58-.58h6.586a.872.872 0 0 0 .872-.871V5.042a.966.966 0 0 0-.966-.967h-9.29A1.065 1.065 0 0 0 79.36 5.14v14.173a1.065 1.065 0 0 0 1.064 1.064h9.37a.773.773 0 0 0 .773-.773v-2.057a.453.453 0 0 0-.453-.453h-6.792a.68.68 0 0 1-.68-.679ZM70.25 10.528h4.535a1.064 1.064 0 0 1 1.065 1.065v3.663a5.122 5.122 0 0 1-5.122 5.121h-1.19a5.122 5.122 0 0 1-5.122-5.121V9.197a5.122 5.122 0 0 1 5.122-5.122h1.286c1.266 0 2.486.478 3.415 1.339l1.361 1.26a.78.78 0 0 1 .002 1.142l-1.17 1.092a.972.972 0 0 1-1.358-.031l-.599-.613a3.006 3.006 0 0 0-2.15-.906h-1.047a1.353 1.353 0 0 0-1.353 1.353v6.724a1.546 1.546 0 0 0 1.547 1.546h1.516a1.353 1.353 0 0 0 1.353-1.353v-1.324a.436.436 0 0 0-.436-.436H70.2a.918.918 0 0 1-.918-.919v-1.454a.966.966 0 0 1 .966-.967Zm27.336 2.029v6.949a.872.872 0 0 1-.872.871h-1.845a.679.679 0 0 1-.68-.679V5.042a.966.966 0 0 1 .967-.967h.469c.727 0 1.401.376 1.784.994l4.323 6.975a.146.146 0 0 0 .271-.075l.107-7.026a.88.88 0 0 1 .88-.868h1.554a.966.966 0 0 1 .966.967v14.37a.963.963 0 0 1-.966.965h-.511a2.201 2.201 0 0 1-1.882-1.06l-4.162-6.873a.217.217 0 0 0-.403.113Z"/>
  </g>
  <defs>
    <clipPath id="degen-dark_svg__a">
      <path fill="#fff" d="M0 0h105.509v24H0z"/>
    </clipPath>
  </defs>
</svg>
